X:1
T:Kildrummie Lodge
T:Kildrummie Lodge
T:Alexander Walker
C:Alexander Walker
L:1/8
M:2/2
K:Bb
V:1 treble 
V:1
 F | (B2 B)d cBGB | FBDB DCCA | (B2 B)d cB FD | Egfe dBB :| a | b2 gb fgdf | edcB cCB,E | %8
 bfgb Bcdc | BGFE DB,B,g | b2 gb fgdf | edcB cCCE | DB,DF GEGB | AFGc dBB || %14

